X: 741
T: Do You Want Anymore?
M:6/8
L:1/8
B:O'Neill's 741
R:Jig
Z:"Transcribed by Bob Safranek, rjs@gsp.org"
N:"Collected by Cronin"
K:D
   A, | DFA A2 B | cAd cAG | Adc deg | fed cAG  |
        FDF GAB  | cAd cAG | Adc AGE | FDD D2  :|
|: g  | fdg fec  | Adc Ade | fdg fec | ABc d2 e |
        aba gag  | fgf edc | Adc AGE | FDD D2  :|


